X:1
T:In un bel prato
T:In un bel prato
T:Girolamo Scotto
T:Source : Secondo Libro delle Muse a tre voci---Venetia---G.Scotto---1562. Editor : André Vierendeels (08/05/16).
T:Notes : Original clefs : C2, C4, F4 Editorial accidentals above the staff Original note values have been halved Dotted brackets indicate black notes Notated as "In un boschetto" in the index 
T:(La Martoretta)
T:©
T:©
T:©
T:©
T:©
T:©
T:©
T:©
C:Girolamo Scotto
Z:©
%%score [ 1 2 3 ]
L:1/8
Q:1/4=109
M:2/2
K:C
V:1 treble nm="Alto" snm="A"
V:2 treble-8 nm="Tenor" snm="T"
V:3 bass nm="Bass" snm="B"
V:1
 z4 A4 | G2 A2 F4 | E4 z2 A2- | A2 A3 G E2 | F3 G ABcA | B2 c3 B A2- |"^#" A2 G2 A4 | z2 E2 E2 D2 | %8
w: In|un bel pra-|to di|_ fio- rett' a-|dor- * * * * *||* * no,|vidd' u- na|
 E2 E2 C4 | C4 z2 C2 | C2 B,2 C2 C2 | A,2 A,2 B,2 C2 | D4 C4 | z2 A,2 CB,CD | E3 F G2 F2 | %15
w: chia- ra fon-|te, si|bel- la che pa-|rea co- sa di-|vi- na,|che pa- * * *|* rea co- sa|
 E2 D4 C2 | D2 z D EEFF | D2 C2 z DEE | FFDD C F2 E | F8 | z8 | z8 | z4 D4 | A6 G2 | F2 E2 F4- | %25
w: di- vi- *|na, a cui d'in- tor- no'in-|tor- no, can- tan- d'in|voc' a- mo- ro- sett' e pron-|te,|||sen|gia don-|na leg- gia-|
 F2 E2 D2 C2 | B,4 A,2 E2 | F6 E2 | D2 C2 D4 | E4 C4 | D3 C B,2 A,2- | A,2 G,2 A,2 z A, | %32
w: * dr'e pel- le-|gri- na, la-|qual ve-|den- do quel-|la, la-|qual ve- den- do|_ quel- la, che|
 CB,CD EDEF | G4 D2 z D | FEFG A4- | A2 A2 G2 F2 | E4 D4 | z4 z2 A2 | G2 E2 G2 G2 | F2 DD F2 F2 | %40
w: quas' al par di lei sem- bra- va|bel- la, che|quas' al par di lei|_ sem- bra- va|bel- la,|in|se stes- sa re-|cat' a et un poc'|
 E2 C2 E4 | D8- | D4 z4 | z2 F2 E2 D2 | F2 E2 z2 F2 | E2 D2 F2 E2 | z2 F2 E2 G2 | F2 A3 GFE | %48
w: a- di- ra-|ta,|_|con u- na|pie- tra, con|u- na pie- tra,|et con un|vi- so _ _ _|
 DC F4 E2 | F2 D2 FEFG | A2 A,2 CB,CD | E3 F G2 A2- | A2 G2 A4 | z2 A,2 CB,CD | E4 z2 C2 | %55
w: _ _ gra- *|to, la fon- te'in tor- bi-|do, la fon- te'in tor- bi-|do ch'e- ra nel|_ pra- to,|la fon- te'in tor- bi-|do, la|
 EDEF G4- | G4 z2 D2 | FEFG A4- | A2 A2 F2 G2 | E4 D2 z D | D2 D2 D4- | D4 D4- | D8 |] %63
w: fon- te'in tor- bi- do|_ la|fon- te'in tor- bi- do|_ ch'e- ra nel|pra- to, ch'e-|ra nel pra-|* to.|_|
V:2
 d4 c2 d2 | B2 A2 d4- | d2 c2 B2 c2- | c2 BA B4 | A2 c4 c2 | d2 c2 ABcA | B4 A2 c2 | c2 B2 c2 A2 | %8
w: In un bel|pra- to di|_ fio- rett' a-|* * * dor-|no, di fio-|rett' a- dor- * * *|* no, vidd'|u- na chia- ra|
 B4 A4 | z2 A2 A2 G2 | A2 F2 G2 G2 | F6 E2 | D4 E2 z E | FEFG A4 | G6 A2 | G2 F2 E4 | D2 z F GGFF | %17
w: fon- te,|si bel- la|che pa- rea co-|sa di-|vi- na, che|pa- * * * *|rea co-|sa di- vi-|na, a cui d'in- tor- no'in-|
 G2 E2 z FGG | FFGG EF G2 | F2 D2 A3 G | F2 E2 D2 C2 | DEFG ABcB/c/ | B2 A4 G2 | A2 c2 B3 c | %24
w: tor- no, can- tan- d'in|voc' a- mo- ro- sett' e pron-|te, sen gia don-|na leg- gia- dr'e|pel- * * * * * * * *|le gri- *|na, sen gia don-|
 d2 G2 A3 G | AB c2 B2 A2- |"^#" A2 G2 A4 | z2 A2 B4- | B2 A2 G2 F2 | G4 A2 z A | A2 G2 F2 E2 | %31
w: na leg- gia- *|* * dr'e pel- le-|* gri- na,|la- qual|_ ve- den- do|quel- la, la-|qual ve- den- do|
 D4 E4- | E4 z2 G2 | GFGA BABc | d4 A2 c2 | cBcd e2 d2 | d2 c2 d2 d2 | z2 d2 c2 A2 | B2 c2 B2 GG | %39
w: quel- la,|_ che|quas' al par di lei sem- bra- va|bel- la, che|quas' al par di lei sem-|bra- va bel- la,|in se stes-|sa re- cat' a et|
 A2 B2 A2 F2 | G2 A2 G2 E2 |"^#""^#" F2 G3 F/E/ F2 | G4 z2 c2 | B2 A2 c2 B2 | z2 c2 B2 A2 | %45
w: un poc' a- di-|ra- ta'et un poc'|a- di- * * ra-|ta, con|u- na pie- tra,|con u- na|
 c2 B2 z2 c2 | B2 A2 c2 B2 | d2 A2 d3 c | BAGF G4 | F4 z2 D2 | FEFG A2 A2 | G2 c4 BA | B4 A2 E2 | %53
w: pie- tra, con|u- na pie- tra,|et con un vi-|so _ _ _ gra-|to, la|fon- te'in tor- bi- do ch'e-|ra nel _ _|pra- to, la|
 FEFG A2 z A | G2 E2 G2 A2 | GG c2 B2 c2 | B2 G2 BABc | d4 c2 AB | cd e3 d d2- | d2 c2 d3 c | %60
w: fon- te'in tor- bi- do, la|fon- te'in tor- bi-|do, ch'e- ra nel pra-|to, la fon- te'in tor- bi-|do, la fon- te'in|tor- bi- do ch'e- ra|_ nel pra- *|
 B2 A2 B4- | B4 A4- | A8 |] %63
w: to, nel pra-|* to.|_|
V:3
 z8 | z8 | A,4 G,2 A,2 | F,4 E,4 | z2 A,4 A,2 | G,2 A,2 F,4 | E,4 z2 A,2 | A,2 G,2 A,2 F,2 | %8
w: ||In un bel|pra- to|di fio-|rett' a- dor-|no, vidd'|u- na chia- ra|
 E,4 A,,4 | z2 F,2 F,2 E,2 | F,2 D,2 C,2 C,2 | D,6 C,2 | B,,4 A,,4- | A,,4 z2 A,,2 | %14
w: fon- te,|si bel- la|che pa- rea co-|sa di-|vi- na,|_ che|
 C,B,,C,D, E,2 F,2 | C,2 D,2 A,,4 | D,2 z D, C,C,D,D, | G,,2 A,,2 z D,C,C, | D,D,G,,G,, A,,D, C,2 | %19
w: pa- * * * rea co-|sa di- vi-|na, a cui d'in- tor- no'in-|tor- ne, can- tan- d'in|voc' a- mo- ro- sett' e pron-|
 D,4 z2 D,2 | A,3 G, F,2 E,2 | F,3 E, D,2 C,2 | D,3 C, B,,A,, B,,2 | A,,2 z A,, E,3 E, | %24
w: te, sen|gia don- na leg-|gia- dr'e pel- le|gri- * * * *|na, sen gia don-|
 D,2 C,2 F,4- | F,2 C,2 D,2 D,2 | E,4 A,,4 | z8 | z8 | E,4 F,4- | F,2 E,2 D,2 C,2 | B,,4 A,,4 | %32
w: na leg- gia-|* dr'e pel- le|gri- na,|||la qual|_ ve- den- do|quel- la,|
 z2 A,,2 C,B,,C,D, | E,D,E,F, G,4 | D,2 z D, F,E,F,G, | A,2 F,2 G,2 D,2 | A,4 D,2 G,2 | %37
w: che quas' al par di|lei sem- bra- va bel-|la, che quas' al par di|lei sem- bra- va|bel- la, in|
 F,2 D,2 F,2 F,2 | E,2 C,C, E,2 E,2 | D,2 B,,2 D,4 | C,2 A,,2 C,2 C,2 | _B,,2 G,,2 D,4 | %42
w: se stes- sa re-|cat' a et un poc'|a- di- ra-|ta'et un poc' a-|di- * ra-|
 G,,2 G,2 F,2 A,2 | G,2 D,2 z2 G,2 | F,2 A,2 G,2 D,2 | z2 G,2 F,2 A,2 | G,2 D,2 E,2 E,2 | %47
w: ta, con u- na|pie- tra, con|u- na pie- tra,|et con un|vi- so gra- to,|
 z2 D,2 D,2 D,2 | G,,2 D,2 C,4 | D,8 | z4 z2 A,,2 | C,B,,C,D, E,2 F,2 | E,2 E,2 A,,4 | %53
w: et con un|vi- so gra-|to,|la|fon- te'in tor- bi- do ch'e-|ra nel pra-|
 A,,4 z2 A,,2 | C,B,,C,D, E,2 A,,2 | C,B,,C,D, E,2 C,2 | E,D,E,F, G,4 | z2 D,2 F,E,F,G, | %58
w: to, la|fon- te'in tor- bi- do, la|fon- te'in tor- bi- do, la|fon- te'in tor- bi- do,|la fon- te'in tor- bi-|
 A,2 A,2 B,2 G,2 | A,4 D,2 G,2 | G,2 F,2 G,4- | G,4 D,4- | D,8 |] %63
w: do ch'e- ra nel|pra- to, ch'e-|ra nel pra-|* to.|_|

